!!!COM:      Bach, Johann Sebastian
!!!CDT:      1685/03/31/-1750/07/28/
!!!OPR@@GER: Das wohltemperirte Clavier
!!!OVM@@GER: Band II
!!!OPR@ENG:  Well-Tempered Clavier
!!!OVM@ENG:  Book II
!!!OTL:      Fugue
!!!OKY:      G major
!!!ONM:      no. 15
!!!SCT:      BWV 884
!!!OMV:      2
**kern
*clefG2
*k[f#]
*G:
*M3/8
*MM78
16r
16dd
16b
16dd
16gg
16dd
=2
16b
16dd
16g
16dd
16b
16dd
=3
16ee
16cc
16a
16cc
16f#
16a
=4
16dd
16b
16g
16b
16e
16g
=5
16cc
16a
16f#
16a
16d
16f#
=6
16b
16a
16g
16a
16b
16cc
=7
16dd
16a
16b
16cc#
16dd
16ee
=8
16ff#
16r
4r
==
*-
!!!AFR:  fugue
!!!EFL:  78/96
!!!END:  1994/02/11/
!!!VID:  3211421369 Bach, BWV 884-02
!!!AST:  Baroque
!!!OCY:  Deutschland
!!!ODT:  1742///
!!!PDT:  1801///
!!!EED:  Walter Hewlett
!!!ENC:  Walter Hewlett
!!!YOR:  Bach Gesellschaft Edition xiv
!!!AFT:  enhanced SCORE
!!!RDT:  2011/10/07/ by Andreas Kornstaedt using massScr2hmd
!!!SCA1: Thematisch-systematisches Verzeichnis der musikalischen Werke 
!!!SCA2: Johann Sebastian Bach: Bach-Werke-Verzeichnis (Schmieder)
!!!YEC1: Copyright 1994, 2000 Center for Computer Assisted Research 
!!!YEC2: in the Humanities
!!!YEM1: Rights to all derivative editions reserved.
!!!YEM2: Refer to licensing agreement for further details.
!!!YEN:  United States of America
!!!ref:  @{OTL}, @{SCT}
!!muse2ps: T^@{OTL} @{ONM} in @{OKY}^C^J.S. Bach\n@{SCT}-@{OMV}^
!!muse2ps: u^@{OPR@ENG}, @{OVM@ENG}^j
